svgs/duotone/person-running.svg

<svg xmlns="http://www.w3.org/2000/svg" viewBox="0 0 448 512"><!--! Font Awesome Pro 6.3.0 by @fontawesome - https://fontawesome.com License - https://fontawesome.com/license (Commercial License) Copyright 2023 Fonticons, Inc. --><defs><style>.fa-secondary{opacity:.4}</style></defs><path class="fa-primary" d="M288 96c26.5 0 48-21.5 48-48s-21.5-48-48-48s-48 21.5-48 48S261.5 96 288 96zM400 224h-44l-26.12-53.25c-12.5-25.5-35.38-44.25-61.75-51L197 98.63C189.5 96.84 181.1 95.97 174.5 95.97c-20.88 0-41.33 6.81-58.26 19.78L76.5 146.3C68.31 152.5 64.01 162 64.01 171.6c0 17.11 13.67 32.02 32.02 32.02c6.808 0 13.67-2.158 19.47-6.616l39.63-30.38c5.92-4.488 13.01-6.787 19.53-6.787c2.017 0 3.981 .2196 5.841 .6623l14.62 4.25l-37.5 87.5C154.1 260.3 152.5 268.8 152.5 277.2c0 22.09 11.49 43.52 31.51 55.29l85 50.13l-27.5 87.75c-.9875 3.174-1.458 6.388-1.458 9.55c0 13.65 8.757 26.31 22.46 30.58C265.6 511.5 268.9 512 272 512c13.62 0 26.25-8.75 30.5-22.5l31.75-101c1.211-4.278 1.796-8.625 1.796-12.93c0-16.57-8.661-32.51-23.55-41.44l-61.13-36.12l31.25-78.38l20.25 41.5C310.9 277.4 327.9 288 345.1 288H400c17.62 0 32-14.38 32-32C432 238.3 417.6 224 400 224z"/><path class="fa-secondary" d="M129.8 317.5L114.9 352H48c-17.62 0-32 14.38-32 32s14.38 32 32 32h77.5c19.25 0 36.5-11.5 44-29.12l8.875-20.5l-10.75-6.25C150.4 349.9 137.6 334.8 129.8 317.5z"/></svg>

<svg xmlns="http://www.w3.org/2000/svg" viewBox="0 0 448 512"><!-- Font Awesome Pro 6.0.0-alpha2 by @fontawesome - https://fontawesome.com License - https://fontawesome.com/license (Commercial License) --><defs><style>.fa-secondary{opacity:.4}</style></defs><path d="M288 96C314.5 96 336 74.5 336 48S314.5 0 288 0S240 21.5 240 48S261.5 96 288 96Z" class="fa-secondary"/><path d="M129.75 317.5L114.875 352H48C30.375 352 16 366.375 16 384S30.375 416 48 416H125.5C144.75 416 162 404.5 169.5 386.875L178.375 366.375L167.625 360.125C150.375 349.875 137.625 334.75 129.75 317.5ZM400 224H356L329.875 170.75C317.375 145.25 294.5 126.5 268.125 119.75L197 98.625C168.75 91.875 139.25 98.125 116.25 115.75L76.5 146.25C62.5 157 59.875 177 70.625 191.125C81.375 205.125 101.5 207.75 115.5 197L155.125 166.625C162.875 160.75 172.625 158.625 180.5 160.5L195.125 164.75L157.625 252.25C145 281.625 156.375 316.25 184 332.5L269 382.625L241.5 470.375C236.25 487.25 245.625 505.25 262.5 510.5C265.625 511.5 268.875 512 272 512C285.625 512 298.25 503.25 302.5 489.5L334.25 388.5C340.125 367.75 331.25 345.375 312.5 334.125L251.375 298L282.625 219.625L302.875 261.125C310.875 277.375 327.875 288 346 288H400C417.625 288 432 273.625 432 256C432 238.25 417.625 224 400 224Z" class="fa-primary"/></svg>
